X: 3345
T: ZIG-ZAG HORNPIPE
R: Hornpipe.
%R: hornpipe, reel
B: James Kerr "Merry Melodies" v.3 p.37 #345
Z: 2016 John Chambers <jc:trillian.mit.edu>
M: C
L: 1/8
K: G
(DB,) |\
G,2G2 G2(BG) | A,2A2 A2(dc) |\
B2GF E2cB | AGFE DCB,A, |\
G,2G2 G2(BG) | A,2A2 A2(dc) |\
BABG EGFA | GDBD G2 :|
|: (Bc) |\
dBdB G2(cd) | ecec A2(ef) |\
gege dcBA | FGAF D2(Bc) |\
dBdB G2(cd) | ecec A2(ef) |\
gege afaf | g2b2 g2 :|

%%sep 1 1 500
%%sep 1 1 500

